X: 1
T: the Scholar
O: Trad
Z: John Chambers <jc:trillian.mit.edu>
R: reel
M: C|
L: 1/8
K: D
|: "D"dfaf "A7"gfeg | "D"fdAG FGA=c | "G"BG~G2 "Em"EFGg | "A7"fdec dcBA |
|  "D"dfaf "A7"gfeg | "D"fdAG FGA=c | "G"BG~G2 "Em"EFGg | "A7"fdec "D"d4 :|
efg |: "D"a2af dfaf | cfaf bagf | "C"~g2ge =cege | Bege "A7"agfg |
|  "D"a2af dfaf | cfaf bagf | "G"gfef gbag | "A7"fgef "D"d4 :|
